packages/core/src/svgs/tokens/branded/BCH.svg

<svg width="24" height="24" viewBox="0 0 24 24" fill="none" xmlns="http://www.w3.org/2000/svg">
<path d="M17.1604 6.53933C16.3906 4.56742 14.4412 4.38765 12.166 4.83708L11.3625 2L9.63783 2.5L10.43 5.23596L9.05918 5.65169L8.26704 2.88203L6.55916 3.38202L7.36254 6.19102L6.26704 6.52809V6.52248L3.90186 7.19664L4.42433 9.02811C4.42433 9.02811 5.68838 8.63485 5.67715 8.66855C6.36816 8.46631 6.71086 8.809 6.87939 9.14047L7.80075 12.3484L7.98614 12.3203L7.80075 12.3708L9.09288 16.8765C9.1266 17.1012 9.09288 17.4832 8.61536 17.6237C8.63783 17.6348 7.36254 17.9888 7.36254 17.9888L7.60973 20.1349L9.8401 19.4944L11.076 19.1518L11.8963 22L13.5985 21.5057L12.8008 18.6911L14.1716 18.309L14.9749 21.1181L16.6996 20.6236L15.8794 17.7753C18.7165 16.7809 20.5311 15.4719 20.0086 12.691C19.5817 10.4551 18.2726 9.76963 16.5255 9.85392C17.3681 9.05058 17.7333 7.98878 17.1715 6.53933H17.1604ZM16.5199 13.3371C17.121 15.4719 13.4075 16.2697 12.2503 16.6123L11.1659 12.8315C12.3289 12.4944 15.8794 11.118 16.5199 13.3371ZM14.194 8.21911C14.7446 10.1685 11.6322 10.809 10.6603 11.0899L9.67716 7.66294C10.649 7.38766 13.6098 6.20225 14.194 8.23035V8.21911Z" fill="#58BE92"/>
</svg>

<svg xmlns="http://www.w3.org/2000/svg" width="24" height="24" fill="none" viewBox="0 0 24 24">
    <path fill="#58BE92" d="M17.16 6.54c-.77-1.973-2.719-2.152-4.994-1.703L11.363 2l-1.725.5.792 2.736-1.37.416-.793-2.77-1.708.5.804 2.809-1.096.337v-.006l-2.365.675.522 1.831s1.264-.393 1.253-.36c.691-.202 1.034.141 1.202.472l.922 3.208.185-.028-.185.05 1.292 4.507c.034.224 0 .606-.478.747.023.01-1.252.365-1.252.365l.247 2.146 2.23-.64 1.236-.343.82 2.848 1.702-.494-.797-2.815 1.37-.382.804 2.81 1.725-.495-.82-2.849c2.836-.994 4.651-2.303 4.129-5.084-.427-2.236-1.736-2.921-3.483-2.837.842-.803 1.207-1.865.646-3.315zm-.64 6.797c.601 2.135-3.112 2.933-4.27 3.275l-1.084-3.78c1.163-.338 4.713-1.714 5.354.505M14.194 8.22c.55 1.95-2.562 2.59-3.534 2.87l-.983-3.426c.972-.275 3.933-1.46 4.517.567z"/>
</svg>
